X: 1
T: the Saint Kilda Wedding
R: strathspey
B: Fraser p.3 #7; Skye p.52; BSFC III-33
Z: 1997 by John Chambers <jc:trillian.mit.edu>
M: 4/4
L: 1/8
K: A
|: "A"~A2 A2 A>c e>c | "D"~B2 c>A "E7"F2 EF | "A"~A2 A2 "F#m"A>c e>c \
|1 "D"~f2 f>e "E7"f>e f<a :|2 "D"~f2 a>g "E7"f>e fg ||
[| "A"a>g a>b a<e e>a | "D"f>g a>g "Bm"f2 "E7"ed | "A"ce fg "F#m"a>g f<a | "A"e<a c<a "E7"B2 AF |
[| "A"A<a a>g a<e e>a | "D"f>g a>g "Bm"f2 "E7"ed | "A"ce fg "F#m"a>g f<a | "A"e<c a>c "E7"HB2 AF |]
